X: 1
T: New Melody
M: 4/4
L: 1/4
Q: 1/4=120
K: C
V:1
%%MIDI gchord b2b2
%%MIDI program 1
%%MIDI chordprog 49
%%MIDI bassprog 45
| "C" eee2 | "F" d2 cB | "G" GGG2 | "C" e2 z2 | % measure 1-4
%%MIDI program 1
%%MIDI chordprog 19
%%MIDI bassprog 45
| "Dm7" f2 g2 | "G7" a2 b2 | "C7" e2 g2 | "C" e4 | % measure 5-8
%%MIDI program 1
%%MIDI chordprog 19
%%MIDI bassprog 45
| "Am7" c'c'ba | "Dm7" a2 g2 | "G7" G2 AB | "C7" c2 e2 | % measure 9-12
%%MIDI program 1
%%MIDI chordprog 49
%%MIDI bassprog 45
| "C7" e2 fe | "G7" d2 cB | "Dm7" A2 GA | "C7" c4 | % measure 13-16